packages/gestalt-icons-android/vr-theme/ic_vr_edit_gestalt.svg

<svg width="24" height="24" viewBox="0 0 24 24" fill="none" xmlns="http://www.w3.org/2000/svg">
<path fill-rule="evenodd" clip-rule="evenodd" d="M22.7042 8.70421C24.1466 7.13485 24.107 4.6926 22.5855 3.17112L20.8282 1.41376C19.3067 -0.107727 16.8645 -0.14728 15.2951 1.2951L15.2929 1.29289L15.2165 1.36928C15.2014 1.38396 15.1863 1.39879 15.1713 1.41376L2.52835 14.0567C2.22236 14.3627 2.02387 14.7597 1.96267 15.1881L1.19837 20.5382C1.00981 21.8581 2.14118 22.9895 3.46111 22.8009L8.8112 22.0366C9.23959 21.9754 9.63657 21.7769 9.94257 21.471L22.0822 9.33134C22.0953 9.31867 22.1084 9.30585 22.1213 9.29289L22.7071 8.70711L22.7042 8.70421ZM19.3053 7.8909L16.1091 4.69468C15.7308 4.30326 15.7349 3.6793 16.1213 3.29289L16.6176 2.79663C17.4008 2.04707 18.6435 2.05752 19.414 2.82797L21.1713 4.58533C21.9524 5.36638 21.9524 6.63271 21.1713 7.41376L20.6844 7.90072C20.2966 8.2651 19.6891 8.26183 19.3053 7.8909ZM14.6858 6.09978C14.6928 6.10698 14.7 6.11417 14.7071 6.12132L17.8787 9.29289C17.8858 9.30004 17.893 9.30714 17.9002 9.3142L18.5855 9.99955L8.52835 20.0567L3.17827 20.821L3.94257 15.471L13.9998 5.41376L14.6858 6.09978Z" fill="black"/>
</svg>

<svg xmlns="http://www.w3.org/2000/svg" width="24" height="24"><path d="M22.7 8.7a4 4 0 0 0-.11-5.53l-1.76-1.76a4 4 0 0 0-5.53-.11l-.08.07-.05.04L2.53 14.06a2 2 0 0 0-.57 1.13l-.76 5.35a2 2 0 0 0 2.26 2.26l5.35-.76a2 2 0 0 0 1.13-.57L22.08 9.33l.04-.04zm-3.4-.8-3.2-3.2a1 1 0 0 1 .02-1.4l.5-.5a2 2 0 0 1 2.8.03l1.75 1.76a2 2 0 0 1 0 2.82l-.49.5a1 1 0 0 1-1.37-.02M14.7 6.1l.02.02 3.17 3.17.02.02.69.69L8.53 20.06l-5.35.76.76-5.35L14 5.41z"/></svg>
